black/svg/1F4B1.svg

<svg id="emoji" viewBox="0 0 72 72" xmlns="http://www.w3.org/2000/svg">
  <g id="line">
    <polyline fill="none" stroke="#000" stroke-linecap="round" stroke-linejoin="round" stroke-width="1.5" points="48.485 26.717 46.125 22.734 50.225 20.441"/>
    <path fill="none" stroke="#000" stroke-linecap="round" stroke-linejoin="round" stroke-width="1.5" d="m47.0718,22.888c5.5014,1.3892,9.7128,5.8192,10.822,11.3838"/>
    <polyline fill="none" stroke="#000" stroke-linecap="round" stroke-linejoin="round" stroke-width="1.5" points="23.094 45.255 25.453 49.238 21.354 51.53"/>
    <path fill="none" stroke="#000" stroke-linecap="round" stroke-linejoin="round" stroke-width="1.5" d="m24.5071,49.0837c-5.5014-1.3891-9.4628-5.3192-10.5721-10.8837"/>
    <ellipse cx="33.2144" cy="20.727" rx="3.5258" ry="3.4257" fill="none" stroke="#000" stroke-miterlimit="10" stroke-width="1.5"/>
    <path fill="none" stroke="#000" stroke-linecap="round" stroke-linejoin="round" stroke-width="1.5" d="m27.9556,13.4112v17.0122c-.0839.2554-.3293.4222-.5976.4064h-9.1432c-.2577-.0184-.4857-.1735-.5976-.4064V13.237c.084-.2553.3293-.4222.5976-.4064h9.1432c.2577.0184.4857.1735.5976.4064v.1742Z"/>
    <polyline fill="none" stroke="#000" stroke-linecap="round" stroke-linejoin="round" stroke-width="1.5" points="22.876 24.443 22.876 22.179 24.43 19.217 22.876 22.179 21.382 19.217"/>
    <line x1="21.4418" x2="24.37" y1="21.8302" y2="21.8302" fill="none" stroke="#000" stroke-linecap="round" stroke-linejoin="round" stroke-width="1.5"/>
    <path fill="none" stroke="#000" stroke-linecap="round" stroke-linejoin="round" stroke-width="1.5" d="m14.9281,30.8879h-2.1514c-.3067.0229-.5738-.2072-.5966-.5139-.0017-.0222-.002-.0445-.001-.0667V13.3531c-.014-.3072.2237-.5676.5309-.5816.0222-.001.0445-.0007.0667.001h2.1514"/>
    <path fill="none" stroke="#000" stroke-linecap="round" stroke-linejoin="round" stroke-width="1.5" d="m30.6448,12.8306l10.3981-.0581c.3066-.0229.5737.2071.5966.5137.0017.0223.002.0446.001.0669v16.9542c.0141.3071-.2235.5675-.5307.5816-.0223.001-.0447.0007-.0669-.001l-10.3981-.0579"/>
    <polyline fill="none" stroke="#000" stroke-linecap="round" stroke-linejoin="round" stroke-width="1.5" points="30.645 15.269 38.892 15.269 38.892 28.391 30.645 28.391"/>
    <line x1="14.9281" x2="14.9281" y1="28.5073" y2="15.2692" fill="none" stroke="#000" stroke-linecap="round" stroke-linejoin="round" stroke-width="1.5"/>
    <path fill="none" stroke="#000" stroke-linecap="round" stroke-linejoin="round" stroke-width="1.5" d="m52.4705,42.68h2.9282c.1032,1.2683,1.1778,2.236,2.45,2.2063h.239v10.393h-.239c-1.2722-.0297-2.3468.938-2.45,2.2063h-2.9282m-14.88-.0581h-2.8686c-.0945-1.2485-1.1379-2.2117-2.39-2.2063h-.2391v-10.3931h.2391c1.26.026,2.3154-.9483,2.39-2.2064h2.6294"/>
    <path fill="none" stroke="#000" stroke-linecap="round" stroke-linejoin="round" stroke-width="1.5" d="m50.08,41.5766v17.1864c-.084.2553-.3293.4222-.5976.4064h-9.1431c-.2577-.0184-.4857-.1735-.5976-.4064v-17.3606c.084-.2553.3293-.4222.5976-.4064h9.1432c.2577.0184.4857.1735.5976.4064v.1742Z"/>
    <path fill="none" stroke="#000" stroke-linecap="round" stroke-linejoin="round" stroke-width="1.5" d="m37.59,59.1113h-6.6927c-.3066.0229-.5737-.2071-.5966-.5137-.0017-.0223-.002-.0446-.001-.0669v-16.9541c-.0141-.3071.2235-.5675.5307-.5816.0223-.001.0447-.0007.0669.001h6.454"/>
    <path fill="none" stroke="#000" stroke-linecap="round" stroke-linejoin="round" stroke-width="1.5" d="m52.3509,40.996h6.8724c.3066-.0229.5737.2071.5966.5137.0017.0223.002.0446.001.0669v16.9541c.0141.3071-.2235.5675-.5307.5816-.0223.001-.0447.0007-.0669-.001h-6.8724"/>
    <path fill="none" stroke="#000" stroke-linecap="round" stroke-miterlimit="10" stroke-width="1.5" d="m51.7533,45.7571c1.7331,1.0451,2.8685,2.4966,2.8685,4.1224s-1.1354,3.0773-2.8685,4.1224"/>
    <path fill="none" stroke="#000" stroke-linecap="round" stroke-miterlimit="10" stroke-width="1.5" d="m37.3513,53.4793c-1.2556-.8101-2.0536-2.1668-2.1513-3.6579.1245-1.6216,1.0413-3.0772,2.45-3.89"/>
    <path fill="none" stroke="#000" stroke-linecap="round" stroke-linejoin="round" stroke-width="1.5" d="m46.3152,48.4279c-.2095-.5669-.7723-.9236-1.3744-.8709h0c-.6747-.0825-1.2886.3975-1.3711,1.0723-.0013.0102-.0024.0205-.0034.0307.0856.6783.6938,1.1664,1.3745,1.1032h0c.6747-.0825,1.2885.3975,1.371,1.0722.0013.0103.0024.0206.0034.0309-.1057.6669-.7004,1.1445-1.3744,1.1037h0c-.6021.0527-1.165-.3039-1.3745-.8709"/>
    <line x1="44.881" x2="44.881" y1="47.557" y2="46.5119" fill="none" stroke="#000" stroke-linecap="round" stroke-linejoin="round" stroke-width="1.5"/>
    <line x1="44.881" x2="44.881" y1="52.9568" y2="51.9117" fill="none" stroke="#000" stroke-linecap="round" stroke-linejoin="round" stroke-width="1.5"/>
  </g>
</svg>

<svg id="emoji" viewBox="0 0 72 72" xmlns="http://www.w3.org/2000/svg">
  <g id="line">
    <polyline fill="none" stroke="#000" stroke-linecap="round" stroke-linejoin="round" stroke-width="1.5" points="48.485 26.717 46.125 22.734 50.225 20.441"/>
    <path fill="none" stroke="#000" stroke-linecap="round" stroke-linejoin="round" stroke-width="1.5" d="M47.0718,22.888a14.7062,14.7062,0,0,1,10.822,11.3838"/>
    <polyline fill="none" stroke="#000" stroke-linecap="round" stroke-linejoin="round" stroke-width="1.5" points="23.094 45.255 25.453 49.238 21.354 51.53"/>
    <path fill="none" stroke="#000" stroke-linecap="round" stroke-linejoin="round" stroke-width="1.5" d="M24.5071,49.0837A14.7063,14.7063,0,0,1,13.685,37.7"/>
    <ellipse cx="33.2144" cy="20.727" rx="3.5258" ry="3.4257" fill="none" stroke="#000" stroke-miterlimit="10" stroke-width="1.5"/>
    <path fill="none" stroke="#000" stroke-linecap="round" stroke-linejoin="round" stroke-width="1.5" d="M27.9556,13.4112V30.4234a.5924.5924,0,0,1-.5976.4064H18.2148a.72.72,0,0,1-.5976-.4064V13.237a.5925.5925,0,0,1,.5976-.4064H27.358a.72.72,0,0,1,.5976.4064Z"/>
    <polyline fill="none" stroke="#000" stroke-linecap="round" stroke-linejoin="round" stroke-width="1.5" points="22.876 24.443 22.876 22.179 24.43 19.217 22.876 22.179 21.382 19.217"/>
    <line x1="21.4418" x2="24.37" y1="21.8302" y2="21.8302" fill="none" stroke="#000" stroke-linecap="round" stroke-linejoin="round" stroke-width="1.5"/>
    <path fill="none" stroke="#000" stroke-linecap="round" stroke-linejoin="round" stroke-width="1.5" d="M14.9281,30.8879H12.7767a.5568.5568,0,0,1-.5976-.5806V13.3531a.5568.5568,0,0,1,.5976-.5806h2.1514"/>
    <path fill="none" stroke="#000" stroke-linecap="round" stroke-linejoin="round" stroke-width="1.5" d="M30.6448,12.8306l10.3981-.0581a.5567.5567,0,0,1,.5976.5806V30.3073a.5567.5567,0,0,1-.5976.5806L30.6448,30.83"/>
    <polyline fill="none" stroke="#000" stroke-linecap="round" stroke-linejoin="round" stroke-width="1.5" points="30.645 15.269 38.892 15.269 38.892 28.391 30.645 28.391"/>
    <line x1="14.9281" x2="14.9281" y1="28.5073" y2="15.2692" fill="none" stroke="#000" stroke-linecap="round" stroke-linejoin="round" stroke-width="1.5"/>
    <path fill="none" stroke="#000" stroke-linecap="round" stroke-linejoin="round" stroke-width="1.5" d="M52.4705,42.68h2.9282a2.4018,2.4018,0,0,0,2.45,2.2063h.239V55.2793h-.239a2.4018,2.4018,0,0,0-2.45,2.2063H52.4705m-14.88-.0581H34.7219a2.3865,2.3865,0,0,0-2.39-2.2063h-.2391V44.8281h.2391a2.3457,2.3457,0,0,0,2.39-2.2064h2.6294"/>
    <path fill="none" stroke="#000" stroke-linecap="round" stroke-linejoin="round" stroke-width="1.5" d="M50.08,41.5766V58.763a.5925.5925,0,0,1-.5976.4064H40.3393a.72.72,0,0,1-.5976-.4064V41.4024a.5925.5925,0,0,1,.5976-.4064h9.1432a.72.72,0,0,1,.5976.4064Z"/>
    <path fill="none" stroke="#000" stroke-linecap="round" stroke-linejoin="round" stroke-width="1.5" d="M37.59,59.1113H30.8973a.5567.5567,0,0,1-.5976-.5806V41.5766a.5567.5567,0,0,1,.5976-.5806h6.454"/>
    <path fill="none" stroke="#000" stroke-linecap="round" stroke-linejoin="round" stroke-width="1.5" d="M52.3509,40.996h6.8724a.5567.5567,0,0,1,.5976.5806V58.5307a.5567.5567,0,0,1-.5976.5806H52.3509"/>
    <path fill="none" stroke="#000" stroke-linecap="round" stroke-miterlimit="10" stroke-width="1.5" d="M51.7533,45.7571c1.7331,1.0451,2.8685,2.4966,2.8685,4.1224s-1.1354,3.0773-2.8685,4.1224"/>
    <path fill="none" stroke="#000" stroke-linecap="round" stroke-miterlimit="10" stroke-width="1.5" d="M37.3513,53.4793A4.7206,4.7206,0,0,1,35.2,49.8214a4.9263,4.9263,0,0,1,2.45-3.89"/>
    <path fill="none" stroke="#000" stroke-linecap="round" stroke-linejoin="round" stroke-width="1.5" d="M46.3152,48.4279a1.3407,1.3407,0,0,0-1.3744-.8709h0A1.2308,1.2308,0,0,0,43.5663,48.66a1.2674,1.2674,0,0,0,1.3745,1.1032h0a1.2307,1.2307,0,0,1,1.3744,1.1031A1.3113,1.3113,0,0,1,44.9408,51.97h0a1.3406,1.3406,0,0,1-1.3745-.8709"/>
    <line x1="44.881" x2="44.881" y1="47.557" y2="46.5119" fill="none" stroke="#000" stroke-linecap="round" stroke-linejoin="round" stroke-width="1.5"/>
    <line x1="44.881" x2="44.881" y1="52.9568" y2="51.9117" fill="none" stroke="#000" stroke-linecap="round" stroke-linejoin="round" stroke-width="1.5"/>
  </g>
</svg>
